images/stage-bluetooth.svg

<?xml version="1.0" encoding="UTF-8" standalone="no"?>
<svg width="60px" height="60px" viewBox="0 0 60 60" version="1.1" xmlns="http://www.w3.org/2000/svg" xmlns:xlink="http://www.w3.org/1999/xlink" xmlns:sketch="http://www.bohemiancoding.com/sketch/ns">
    <!-- Generator: Sketch 3.3.3 (12081) - http://www.bohemiancoding.com/sketch -->
    <title>stage-bluetooth</title>
    <desc>Created with Sketch.</desc>
    <defs></defs>
    <g id="Page-1" stroke="none" stroke-width="1" fill="none" fill-rule="evenodd" sketch:type="MSPage">
        <g id="stage-bluetooth" sketch:type="MSArtboardGroup" fill="#9B9B9B">
            <path d="M44.2289632,14.2064587 C50.8995621,20.7430454 50.8425438,28.9536193 50.8425438,30 C50.8425438,30 51.4992029,38.3574934 44.2341801,45.7972366 C44.0160532,46.0206103 43.8474118,46.2929747 43.8474118,46.6189544 C43.8474118,47.2308503 44.3730269,47.7268807 45.021426,47.7268807 C45.421079,47.7268807 46.0023708,47.2640105 46.0023708,47.2640105 C53.8977661,39.2569546 53.2231702,30 53.2231702,30 C53.2231702,19.3901134 46.0603636,12.7489118 46.0603636,12.7489118 C45.8482931,12.4613316 45.4208317,12.2731193 45.021426,12.2731193 C44.3730269,12.2731193 43.8474118,12.7691497 43.8474118,13.3810531 C43.8474118,13.7068679 43.9962951,14.0000398 44.2335279,14.2027634 L44.2289632,14.2064587 L44.2289632,14.2064587 Z M39.2015973,18.6788045 C44.3015272,23.7787269 43.9615534,29.9374425 43.9615534,29.9374425 C43.9615534,35.321812 41.4923301,38.9907666 39.1826862,41.3359692 C38.9245108,41.5392024 38.7600444,41.8451391 38.7600444,42.1872342 C38.7600444,42.7991301 39.2856595,43.2951605 39.9340511,43.2951605 C40.2733728,43.2951605 40.5793545,43.1590645 40.7936886,42.9418522 C40.7936886,42.9418522 46.3421798,38.1201331 46.3421798,30.0297647 C46.3421798,21.7549392 40.7930365,17.0575257 40.7930365,17.0575257 C40.5787324,16.8406356 40.273088,16.7048395 39.9340511,16.7048395 C39.2856595,16.7048395 38.7600444,17.2008699 38.7600444,17.8127733 C38.7600444,18.1631584 38.932546,18.4757811 39.2015973,18.6788045 L39.2015973,18.6788045 Z M37.3088462,30.0153883 C37.3088462,32.9037155 36.0416853,35.4834077 34.022275,37.324035 L34.0379256,37.3369573 C33.8905414,37.5221264 33.8031213,37.752291 33.8031213,38.0017191 C33.8031213,38.613615 34.3287364,39.1096453 34.9771355,39.1096453 C35.2956272,39.1096453 35.5848265,38.990047 35.7963273,38.7957334 L35.8087248,38.8061971 C38.2010367,36.5562849 39.6894726,33.4430924 39.6894726,29.9846117 C39.6894726,26.5422764 38.2013965,23.4372839 35.8100216,21.1913369 L35.7950231,21.203652 C35.5835897,21.0097656 35.29523,20.8903547 34.9771355,20.8903547 C34.3287364,20.8903547 33.8031213,21.386385 33.8031213,21.9982809 C33.8031213,22.2474167 33.8901966,22.477364 34.0372735,22.6624206 L34.0261877,22.6716551 C36.0598319,24.5358633 37.3088462,27.1465044 37.3088462,30.0153883 L37.3088462,30.0153883 Z M31.3083608,30.0153883 C31.3083608,33.0231865 29.2375388,33.085654 29.2375388,34.1855152 C29.2375388,34.7974111 29.763154,35.2934415 30.4115455,35.2934415 C30.7219796,35.2934415 31.2679225,35.0386166 31.2679225,35.0386166 C32.7379419,33.8021048 33.6889872,32.0134888 33.6889872,30.0153883 C33.6889872,28.0398642 32.7593191,26.2163116 31.2731319,24.9558367 C31.2731319,24.9558367 30.2585697,24.1370797 29.5123767,25.1154236 C28.9502135,25.8524871 29.5748368,26.549502 29.9223736,26.8970388 C30.7444211,27.7190864 31.3083608,28.8076593 31.3083608,30.0153883 Z M30.2079612,20.5247052 C30.4629612,20.2717052 30.6029612,19.9267052 30.6029612,19.5677052 C30.6029612,19.2097052 30.4569612,18.8697052 30.2079612,18.6177052 L18.7549612,7.16670521 C18.3699612,6.78070521 17.7959612,6.66470521 17.2889612,6.87470521 C16.7859612,7.08270521 16.4559612,7.57470521 16.4559612,8.11770521 L16.4559612,26.1857052 L9.05996117,18.7897052 C8.53396117,18.2667052 7.67996117,18.2667052 7.15696117,18.7897052 C6.63096117,19.3167052 6.63096117,20.1717052 7.15696117,20.6947052 L16.4569612,29.9907052 L16.4569612,30.4657052 L7.69596117,39.2297052 C7.16996117,39.7517052 7.16996117,40.6077052 7.69596117,41.1317052 C7.95996117,41.3957052 8.30296117,41.5257052 8.64796117,41.5257052 C8.99096117,41.5257052 9.33796117,41.3927052 9.60296117,41.1317052 L16.4599612,34.2717052 L16.4599612,51.8847052 C16.4599612,52.4287052 16.7889612,52.9217052 17.2909612,53.1277052 C17.4609612,53.1967052 17.6329612,53.2287052 17.8069612,53.2287052 C18.1569612,53.2287052 18.5009612,53.0927052 18.7579612,52.8377052 L30.2109612,41.3847052 C30.4669612,41.1317052 30.6059612,40.7877052 30.6059612,40.4297052 C30.6059612,40.0737052 30.4639612,39.7317052 30.2109612,39.4787052 L20.7339612,29.9997052 L21.8589612,28.8747052 L30.2079612,20.5247052 Z M19.1489612,11.3667052 L27.3549612,19.5677052 L19.9519612,26.9707052 L19.1489612,27.7727052 L19.1489612,11.3667052 L19.1489612,11.3667052 Z M19.1489612,48.6387052 L19.1489612,32.2387052 C19.1519612,32.2387052 19.1579612,32.2437052 19.1599612,32.2437052 L27.3499612,40.4337052 L19.1489612,48.6387052 L19.1489612,48.6387052 Z" id="Shape" sketch:type="MSShapeGroup"></path>
        </g>
    </g>
</svg>

<svg width="60" height="60" xmlns="http://www.w3.org/2000/svg"><g id="Page-1" stroke="none" stroke-width="1" fill="none" fill-rule="evenodd"><g id="stage-bluetooth" fill="#9B9B9B"><path d="M44.229 14.206c6.67 6.537 6.614 14.748 6.614 15.794 0 0 .656 8.357-6.609 15.797-.218.224-.387.496-.387.822 0 .612.526 1.108 1.174 1.108.4 0 .981-.463.981-.463C53.898 39.257 53.223 30 53.223 30c0-10.61-7.163-17.251-7.163-17.251-.212-.288-.64-.476-1.039-.476-.648 0-1.174.496-1.174 1.108 0 .326.15.619.387.822l-.005.003zm-5.027 4.473c5.1 5.1 4.76 11.258 4.76 11.258 0 5.385-2.47 9.054-4.78 11.399-.257.203-.422.51-.422.851 0 .612.526 1.108 1.174 1.108.34 0 .645-.136.86-.353 0 0 5.548-4.822 5.548-12.912 0-8.275-5.549-12.972-5.549-12.972a1.205 1.205 0 00-.859-.353c-.648 0-1.174.496-1.174 1.108 0 .35.173.663.442.866zm-1.893 11.336c0 2.889-1.267 5.468-3.287 7.309l.016.013a1.063 1.063 0 00-.235.665c0 .612.526 1.108 1.174 1.108.319 0 .608-.12.82-.314l.012.01c2.392-2.25 3.88-5.363 3.88-8.821 0-3.443-1.488-6.548-3.879-8.794l-.015.013a1.207 1.207 0 00-.818-.314c-.648 0-1.174.496-1.174 1.108 0 .25.087.48.234.664l-.01.01c2.033 1.864 3.282 4.475 3.282 7.343zm-6 0c0 3.008-2.071 3.07-2.071 4.17 0 .612.525 1.108 1.174 1.108.31 0 .856-.254.856-.254 1.47-1.237 2.421-3.026 2.421-5.024 0-1.975-.93-3.799-2.416-5.06 0 0-1.014-.818-1.76.16-.563.737.062 1.435.41 1.782.821.822 1.385 1.91 1.385 3.118zm-1.101-9.49a1.346 1.346 0 000-1.907L18.755 7.167a1.348 1.348 0 00-2.299.951v18.068L9.06 18.79a1.347 1.347 0 00-1.903 1.905l9.3 9.296v.475L7.696 39.23a1.344 1.344 0 00.952 2.296c.343 0 .69-.133.955-.394l6.857-6.86v17.613a1.345 1.345 0 001.347 1.344c.35 0 .694-.136.951-.391l11.453-11.453a1.345 1.345 0 000-1.906l-9.477-9.48 1.125-1.124 8.349-8.35zm-11.059-9.158l8.206 8.2-7.403 7.404-.803.802V11.367zm0 37.272v-16.4c.003 0 .009.005.011.005l8.19 8.19-8.201 8.205z" id="Shape"/></g></g></svg>
